X: 157
T:Credo Vilayge I
N: Derived from Jos1305-Credo_Vilayge_I.krn
C: Josquin des Prez
%%abc-version 2.0
%%abcx-abcm2ps-target-version 5.9.1 (29 Sep 2008)
%%abc-creator hum2abc beta
%%abcx-conversion-date 2019/02/12 16:15:46
%%abc-edited-by Jesse Rodin
%%abc-edited-by Jesse Rodin; Victoria Chang 2012/01/31
%%abcx-initial-encoding-date 2012/01/31/
%%humdrum-veritas 3014024468
%%humdrum-veritas-data 2878487104
%%linebreak <none>
%%barnumbers 0
L: 1/4
M: 2/1
Q: 1/2=120
%%staves [1 2 3 4]
V: 1 clef=treble
V: 2 clef=treble-8
V: 3 clef=treble-8
V: 4 clef=bass
K: F
[V:1] z8 | 
[V:2] A8 | 
[V:3] z8 | 
[V:4] D,8 | 
[V:1] z8 | 
[V:2] B8 | 
[V:3] z8 | 
[V:4] G,,4D,4- | 
[V:1] z8 | 
[V:2] A8 | 
[V:3] z8 | 
[V:4] D,4C,4- | 
[V:1] z8 | 
[V:2] G4G4 | 
[V:3] z8 | 
[V:4] C,4B,,4 | 
[V:1] z8 | 
[V:2] A2^F4E^F | 
[V:3] A8 | 
[V:4] A,,8 | 
[V:1] z8 | 
[V:2] G8 | 
[V:3] B8 | 
[V:4] G,,8 | 
[V:1] A8 | 
[V:2] D8 | 
[V:3] A4F4 | 
[V:4] z8 | 
[V:1] B8 | 
[V:2] d4d4- | 
[V:3] G4D4- | 
[V:4] G,,8 | 
[V:1] A8 | 
[V:2] d2d2d4 | 
[V:3] D2E2F2G2 | 
[V:4] D,8- | 
[V:1] F4G4 | 
[V:2] d6B2 | 
[V:3] A4B4 | 
[V:4] D,4G,4 | 
[V:1] A8 | 
[V:2] c2d4cB | 
[V:3] A4d4 | 
[V:4] F,2D,4E,2 | 
[V:1] A4G4- | 
[V:2] A4d4 | 
[V:3] c4B4 | 
[V:4] F,4B,,4 | 
[V:1] G4^F4 | 
[V:2] z4d4- | 
[V:3] A8 | 
[V:4] C,4D,4 | 
[V:1] G8- | 
[V:2] d4_e4- | 
[V:3] G8 | 
[V:4] G,,4C,4- | 
[V:1] G8 | 
[V:2] e4d4 | 
[V:3] z8 | 
[V:4] C,2B,,2G,,4 | 
[V:1] z8 | 
[V:2] c2c4BA | 
[V:3] E4F4 | 
[V:4] A,,8 | 
[V:1] z8 | 
[V:2] B4G4 | 
[V:3] G8 | 
[V:4] G,,8 | 
[V:1] z8 | 
[V:2] B6c2 | 
[V:3] G8 | 
[V:4] z4G,,4- | 
[V:1] z8 | 
[V:2] d6cB | 
[V:3] G8 | 
[V:4] G,,2A,,2B,,2C,2 | 
[V:1] z8 | 
[V:2] A2B4AG | 
[V:3] F4G4 | 
[V:4] D,4G,,4 | 
[V:1] z8 | 
[V:2] F2D2E4 | 
[V:3] A8 | 
[V:4] z2D,4C,2 | 
[V:1] z8 | 
[V:2] F4D2E2- | 
[V:3] A4G4- | 
[V:4] D,4B,,2C,2- | 
[V:1] z8 | 
[V:2] EDD4C2 | 
[V:3] G4^F4 | 
[V:4] C,B,,G,,2A,,4 | 
[V:1] z4G4- | 
[V:2] D8 | 
[V:3] G8- | 
[V:4] G,,8 | 
[V:1] G4G4 | 
[V:2] E6E2 | 
[V:3] G8 | 
[V:4] C,6C,2 | 
[V:1] G4G4 | 
[V:2] E4E4 | 
[V:3] z4c4- | 
[V:4] C,4C,4 | 
[V:1] A8 | 
[V:2] F8 | 
[V:3] c4c4 | 
[V:4] F,,4F,4 | 
[V:1] G4F4 | 
[V:2] z4F4 | 
[V:3] c4c4 | 
[V:4] E,4F,4 | 
[V:1] E8 | 
[V:2] G4A4 | 
[V:3] c8 | 
[V:4] C,8 | 
[V:1] D8 | 
[V:2] B8 | 
[V:3] d8 | 
[V:4] B,,8 | 
[V:1] z8 | 
[V:2] A4G4- | 
[V:3] c4B4 | 
[V:4] F,4G,4 | 
[V:1] A8 | 
[V:2] G2^FE^F4 | 
[V:3] A8 | 
[V:4] D,8 | 
[V:1] B8 | 
[V:2] G8 | 
[V:3] G8 | 
[V:4] G,,4G,4 | 
[V:1] A8 | 
[V:2] D8 | 
[V:3] d8 | 
[V:4] F,4D,2F,2 | 
[V:1] G4G4 | 
[V:2] z4c4 | 
[V:3] _e8 | 
[V:4] _E,2C,4B,,C, | 
[V:1] F4G4 | 
[V:2] A2B2G4 | 
[V:3] d4B2c2- | 
[V:4] D,4_E,4 | 
[V:1] A8 | 
[V:2] z2c2d2f2 | 
[V:3] cBAGF4 | 
[V:4] F,4D,4 | 
[V:1] G4G4- | 
[V:2] e2d3cd2- | 
[V:3] G4B4 | 
[V:4] z4G,,4 | 
[V:1] G4^F4 | 
[V:2] d2cBA4 | 
[V:3] A8 | 
[V:4] D,8 | 
[V:1] G8- | 
[V:2] B4G2B2 | 
[V:3] G8- | 
[V:4] G,,8 | 
[V:1] G8 | 
[V:2] c2d4G2- | 
[V:3] G8 | 
[V:4] z8 | 
[V:1] z8 | 
[V:2] G2c4BA | 
[V:3] z8 | 
[V:4] E,4F,4 | 
[V:1] z8 | 
[V:2] B4G4 | 
[V:3] z8 | 
[V:4] G,8 | 
[V:1] E4F4 | 
[V:2] z8 | 
[V:3] z8 | 
[V:4] A,8 | 
[V:1] G4A4 | 
[V:2] z8 | 
[V:3] E4F4 | 
[V:4] G,4F,4 | 
[V:1] G2G4FE | 
[V:2] =B4c4 | 
[V:3] G8 | 
[V:4] E,8 | 
[V:1] F6GA | 
[V:2] d8- | 
[V:3] A8 | 
[V:4] D,8 | 
[V:1] B4A4 | 
[V:2] d8 | 
[V:3] G4F4 | 
[V:4] z8 | 
[V:1] z2G3EG2 | 
[V:2] e8 | 
[V:3] E8 | 
[V:4] z4C,4 | 
[V:1] F3GA4 | 
[V:2] d4c4 | 
[V:3] F4F4 | 
[V:4] D,2C,B,,A,,4 | 
[V:1] D4G4 | 
[V:2] =B8 | 
[V:3] G8 | 
[V:4] G,,8 | 
[V:1] E2A3GFE | 
[V:2] c4A4 | 
[V:3] A8 | 
[V:4] z8 | 
[V:1] D2G2A2c2 | 
[V:2] =B4c4 | 
[V:3] z4A4 | 
[V:4] z8 | 
[V:1] B2A4G2 | 
[V:2] d8 | 
[V:3] B8 | 
[V:4] z8 | 
[V:1] A4z4 | 
[V:2] e4c4- | 
[V:3] A6A2 | 
[V:4] z8 | 
[V:1] A4B4 | 
[V:2] c2c2d2e2 | 
[V:3] A4G4 | 
[V:4] z4G,,4 | 
[V:1] A6A2 | 
[V:2] f6ed | 
[V:3] F4D4 | 
[V:4] D,4F,4- | 
[V:1] A4G4 | 
[V:2] c2d4^c2 | 
[V:3] F4G4 | 
[V:4] F,2D,2E,4 | 
[V:1] F2G2A4 | 
[V:2] d2D2E2F2 | 
[V:3] A2B2c4 | 
[V:4] D,2C,B,,A,,4 | 
[V:1] B2G2G4- | 
[V:2] G4d4- | 
[V:3] d4B4 | 
[V:4] G,,8 | 
[V:1] G2^F2F2E2 | 
[V:2] d8 | 
[V:3] A8 | 
[V:4] D,8 | 
[V:1] G8- | 
[V:2] B6G2 | 
[V:3] G8 | 
[V:4] G,,8 | 
[V:1] G8 | 
[V:2] G8 | 
[V:3] z4E4 | 
[V:4] z8 | 
[V:1] z8 | 
[V:2] z4B4 | 
[V:3] F4G4 | 
[V:4] z8 | 
[V:1] z8 | 
[V:2] c2d4B2 | 
[V:3] E2F2G4 | 
[V:4] z8 | 
[V:1] E4F4 | 
[V:2] c4d4 | 
[V:3] A4z4 | 
[V:4] z8 | 
[V:1] G4E3F | 
[V:2] z2e4c2- | 
[V:3] z8 | 
[V:4] z8 | 
[V:1] G2A4G2 | 
[V:2] c2BAB4 | 
[V:3] z8 | 
[V:4] z4E,4 | 
[V:1] A4z4 | 
[V:2] A4z4 | 
[V:3] z8 | 
[V:4] F,4G,4 | 
[V:1] z8 | 
[V:2] z8 | 
[V:3] E4F4 | 
[V:4] C,2E,2D,4 | 
[V:1] z8 | 
[V:2] z8 | 
[V:3] G4E2F2 | 
[V:4] G,,2C,4D,2 | 
[V:1] z8 | 
[V:2] z8 | 
[V:3] G2A4G2 | 
[V:4] C,2A,,2B,,4 | 
[V:1] z8 | 
[V:2] z8 | 
[V:3] A4z4 | 
[V:4] A,,2D,4E,2 | 
[V:1] z8 | 
[V:2] z8 | 
[V:3] A4B4 | 
[V:4] F,2D,4G,2 | 
[V:1] z8 | 
[V:2] z8 | 
[V:3] A4z2A2 | 
[V:4] F,3D,E,2D,2- | 
[V:1] z8 | 
[V:2] z8 | 
[V:3] F2G2A4 | 
[V:4] D,2B,,2C,2D,2 | 
[V:1] z8 | 
[V:2] z8 | 
[V:3] G2G4^F2 | 
[V:4] B,,2C,2A,,4 | 
[V:1] z4G4 | 
[V:2] z8 | 
[V:3] G4z4 | 
[V:4] G,,8 | 
[V:1] G4A2B2- | 
[V:2] z8 | 
[V:3] B4c2d2- | 
[V:4] z8 | 
[V:1] B2AG^F3E | 
[V:2] z8 | 
[V:3] d2cBA4 | 
[V:4] z8 | 
[V:1] G8 | 
[V:2] z4G4 | 
[V:3] G8 | 
[V:4] z4G,,4 | 
[V:1] z8 | 
[V:2] G4A2B2- | 
[V:3] z8 | 
[V:4] B,,4C,2D,2- | 
[V:1] z8 | 
[V:2] B2AG^F3E | 
[V:3] z8 | 
[V:4] D,2C,B,,A,,4 | 
[V:1] z8 | 
[V:2] G8 | 
[V:3] z4G4 | 
[V:4] G,,8 | 
[V:1] z8 | 
[V:2] z8 | 
[V:3] G4A4 | 
[V:4] z8 | 
[V:1] G4G4 | 
[V:2] z8 | 
[V:3] G2F2E4 | 
[V:4] z8 | 
[V:1] A4G2F2 | 
[V:2] z8 | 
[V:3] F2D2E2F2 | 
[V:4] z8 | 
[V:1] E4F2D2 | 
[V:2] z8 | 
[V:3] G4A2B2 | 
[V:4] z8 | 
[V:1] E2F2G4 | 
[V:2] z8 | 
[V:3] c2d2B4 | 
[V:4] z8 | 
[V:1] A8 | 
[V:2] z8 | 
[V:3] A4z2D2 | 
[V:4] z8 | 
[V:1] z2A2F3G | 
[V:2] z8 | 
[V:3] F3GA2B2 | 
[V:4] z8 | 
[V:1] A4B2A2- | 
[V:2] z8 | 
[V:3] A2d3c/B/c2 | 
[V:4] z8 | 
[V:1] AGG4^F2 | 
[V:2] z8 | 
[V:3] F2G2A4 | 
[V:4] z8 | 
[V:1] G8- | 
[V:2] z8 | 
[V:3] G8- | 
[V:4] z8 | 
[V:1] G8 | 
[V:2] z8 | 
[V:3] G8 | 
[V:4] z8 | 
[V:1] z8 | 
[V:2] z8 | 
[V:3] z8 | 
[V:4] E,4F,4 | 
[V:1] z8 | 
[V:2] z8 | 
[V:3] z8 | 
[V:4] G,6F,2 | 
[V:1] z8 | 
[V:2] E4F4 | 
[V:3] z8 | 
[V:4] G,4A,4 | 
[V:1] z8 | 
[V:2] G6F2 | 
[V:3] z8 | 
[V:4] G,4C,4- | 
[V:1] E4F4 | 
[V:2] G4A4 | 
[V:3] z8 | 
[V:4] C,2E,2D,4 | 
[V:1] G6F2 | 
[V:2] G2B4A2 | 
[V:3] z8 | 
[V:4] G,,8 | 
[V:1] G4A4 | 
[V:2] G2FED4 | 
[V:3] E4F4 | 
[V:4] z8 | 
[V:1] B4G4- | 
[V:2] z8 | 
[V:3] G8 | 
[V:4] z8 | 
[V:1] G2^F2F2E2 | 
[V:2] z8 | 
[V:3] A8 | 
[V:4] z8 | 
[V:1] G8- | 
[V:2] z8 | 
[V:3] G8 | 
[V:4] z4G,,4 | 
[V:1] G8 | 
[V:2] z8 | 
[V:3] E8 | 
[V:4] C,4C,4 | 
[V:1] z8 | 
[V:2] z4d4 | 
[V:3] F4D4 | 
[V:4] D,2D,4C,B,, | 
[V:1] z8 | 
[V:2] c4A4 | 
[V:3] E4F4 | 
[V:4] A,,4A,,4 | 
[V:1] z8 | 
[V:2] B8 | 
[V:3] G8 | 
[V:4] G,,4z4 | 
[V:1] z8 | 
[V:2] A8 | 
[V:3] E4F4 | 
[V:4] A,,4D,4 | 
[V:1] z8 | 
[V:2] z4d4 | 
[V:3] G8 | 
[V:4] C,3D,B,,4 | 
[V:1] z8 | 
[V:2] c4A4 | 
[V:3] A8 | 
[V:4] A,,4D,4 | 
[V:1] z8 | 
[V:2] B2G2G4- | 
[V:3] z8 | 
[V:4] B,,4C,4 | 
[V:1] z8 | 
[V:2] G2^F2^F2E2 | 
[V:3] A8 | 
[V:4] A,,8 | 
[V:1] z8 | 
[V:2] G8 | 
[V:3] B8 | 
[V:4] G,,8 | 
[V:1] A8 | 
[V:2] D8 | 
[V:3] A4F4 | 
[V:4] z8 | 
[V:1] B8 | 
[V:2] d6d2 | 
[V:3] G4D4- | 
[V:4] G,,8 | 
[V:1] A4A4 | 
[V:2] d4d4 | 
[V:3] D2E2F2G2 | 
[V:4] z8 | 
[V:1] F4G4 | 
[V:2] d4d2d2- | 
[V:3] A2B4AG | 
[V:4] D,4G,,4 | 
[V:1] A8 | 
[V:2] d2cBA4 | 
[V:3] F4F4 | 
[V:4] D,6D,2 | 
[V:1] G4G4- | 
[V:2] z4d4 | 
[V:3] G4B4 | 
[V:4] B,,4G,,4 | 
[V:1] G2^FEF4 | 
[V:2] c4A2d2- | 
[V:3] A8 | 
[V:4] C,4D,4 | 
[V:1] G8 | 
[V:2] dc_e4dc | 
[V:3] G8- | 
[V:4] G,,2C,4B,,A,, | 
[V:1] G8 ||  
[V:2] d8 ||  
[V:3] G8 ||  
[V:4] G,,8 ||  
[V:1]  [K:F] [K:clef=treble][M:2/1]z8 | 
[V:2]  [K:F] [K:clef=treble-8][M:2/1]z8 | 
[V:3]  [K:F] [K:clef=treble-8][M:2/1]z8 | 
[V:4]  [K:F] [K:clef=bass][M:2/1]E,4F,4 | 
[V:1] z8 | 
[V:2] E4F4 | 
[V:3] z8 | 
[V:4] G,2F,E,D,4 | 
[V:1] z8 | 
[V:2] G4A4 | 
[V:3] E4F4 | 
[V:4] C,2E,2D,4 | 
[V:1] z8 | 
[V:2] G2B4AG | 
[V:3] G8 | 
[V:4] G,,4z2G,,2 | 
[V:1] z8 | 
[V:2] F4D2F2 | 
[V:3] A8 | 
[V:4] D,2F,4E,D, | 
[V:1] z8 | 
[V:2] C2E2D4 | 
[V:3] G4F4 | 
[V:4] E,2C,4=B,,2 | 
[V:1] z8 | 
[V:2] C2G4E2- | 
[V:3] E8- | 
[V:4] C,4z2G,2 | 
[V:1] z8 | 
[V:2] EFG2C2G2 | 
[V:3] E8 | 
[V:4] E,3F,G,2C,2 | 
[V:1] z8 | 
[V:2] F2D4EF | 
[V:3] F4D4 | 
[V:4] D,2F,4E,D, | 
[V:1] z8 | 
[V:2] G4A4 | 
[V:3] E4F4 | 
[V:4] C,3B,,A,,4 | 
[V:1] z8 | 
[V:2] B4A2G2- | 
[V:3] G8 | 
[V:4] G,,8 | 
[V:1] z8 | 
[V:2] G2FED4 | 
[V:3] E4F4 | 
[V:4] z8 | 
[V:1] z8 | 
[V:2] z2D4C2 | 
[V:3] G8 | 
[V:4] G,,3A,,B,,2C,2- | 
[V:1] z8 | 
[V:2] E6DC | 
[V:3] G8 | 
[V:4] C,B,,C,2G,,2C,2- | 
[V:1] z8 | 
[V:2] D4C4 | 
[V:3] G8 | 
[V:4] C,2B,,2C,2_E,2 | 
[V:1] z8 | 
[V:2] z2D3EG2- | 
[V:3] F4G4 | 
[V:4] D,4B,,4 | 
[V:1] z8 | 
[V:2] G2^FE^F4 | 
[V:3] A8 | 
[V:4] C,4D,4 | 
[V:1] z8 | 
[V:2] G6E2 | 
[V:3] B6A2 | 
[V:4] G,,3A,,B,,2C,2 | 
[V:1] z8 | 
[V:2] F4E4 | 
[V:3] B4A4- | 
[V:4] D,2D,4C,2 | 
[V:1] z8 | 
[V:2] D6E2- | 
[V:3] A2G2G4- | 
[V:4] D,2B,,3G,,C,2- | 
[V:1] z8 | 
[V:2] E2D4C2 | 
[V:3] G4^F4 | 
[V:4] C,B,,G,,2A,,4 | 
[V:1] z8 | 
[V:2] D8 | 
[V:3] G4z4 | 
[V:4] G,,8 | 
[V:1] z8 | 
[V:2] z8 | 
[V:3] D8 | 
[V:4] z8 | 
[V:1] z8 | 
[V:2] z8 | 
[V:3] E4F4 | 
[V:4] z8 | 
[V:1] D8 | 
[V:2] z8 | 
[V:3] D2G4F2 | 
[V:4] z8 | 
[V:1] E4F4 | 
[V:2] z8 | 
[V:3] G4D2F2 | 
[V:4] z8 | 
[V:1] D2G4^F2 | 
[V:2] z8 | 
[V:3] G2B2A4 | 
[V:4] z8 | 
[V:1] G4G4 | 
[V:2] z8 | 
[V:3] G4G4 | 
[V:4] z8 | 
[V:1] G4G4 | 
[V:2] z8 | 
[V:3] B4c4 | 
[V:4] z8 | 
[V:1] F6D2 | 
[V:2] z8 | 
[V:3] d8 | 
[V:4] z8 | 
[V:1] E4F4 | 
[V:2] z8 | 
[V:3] c4d4- | 
[V:4] z8 | 
[V:1] D4B4- | 
[V:2] z8 | 
[V:3] d4G4 | 
[V:4] z8 | 
[V:1] B2A2A4- | 
[V:2] z8 | 
[V:3] A4c4 | 
[V:4] z8 | 
[V:1] A4G4 | 
[V:2] z8 | 
[V:3] B8 | 
[V:4] z8 | 
[V:1] A8- | 
[V:2] z8 | 
[V:3] A8 | 
[V:4] z8 | 
[V:1] A8 | 
[V:2] z8 | 
[V:3] z4A4 | 
[V:4] z8 | 
[V:1] z8 | 
[V:2] z8 | 
[V:3] A2B4AB | 
[V:4] z8 | 
[V:1] A8 | 
[V:2] z8 | 
[V:3] cBAG^F3E | 
[V:4] z8 | 
[V:1] B8 | 
[V:2] z8 | 
[V:3] G4d4- | 
[V:4] z8 | 
[V:1] A8 | 
[V:2] z8 | 
[V:3] d2c2d4- | 
[V:4] z8 | 
[V:1] F4G4 | 
[V:2] z8 | 
[V:3] d2A2B4 | 
[V:4] z8 | 
[V:1] A8 | 
[V:2] z8 | 
[V:3] c2A4F2 | 
[V:4] z8 | 
[V:1] B4A4- | 
[V:2] z8 | 
[V:3] G4A4 | 
[V:4] z8 | 
[V:1] A2F2G2A2 | 
[V:2] z8 | 
[V:3] D4E2D2- | 
[V:4] z8 | 
[V:1] D4E2F2 | 
[V:2] z8 | 
[V:3] D2G4F2 | 
[V:4] z8 | 
[V:1] D2G4A2 | 
[V:2] z8 | 
[V:3] G3AB2c2 | 
[V:4] z8 | 
[V:1] B2A2c3B | 
[V:2] z8 | 
[V:3] d4_e2c2- | 
[V:4] z8 | 
[V:1] AGG4^F2 | 
[V:2] z8 | 
[V:3] c2B2A4 | 
[V:4] z8 | 
[V:1] !fermata!G8 | 
[V:2] z8 | 
[V:3] !fermata!G8 | 
[V:4] z8 | 
[V:1] z8 | 
[V:2] z8 | 
[V:3] z8 | 
[V:4] z8 | 
[V:1] !fermata!F8 | 
[V:2] !fermata!d8 | 
[V:3] !fermata!A8 | 
[V:4] !fermata!D,8 | 
[V:1] !fermata!G8 | 
[V:2] !fermata!d8 | 
[V:3] !fermata!B8 | 
[V:4] !fermata!G,,8 | 
[V:1] !fermata!A8 | 
[V:2] !fermata!c8 | 
[V:3] !fermata!A8 | 
[V:4] !fermata!F,8 | 
[V:1] !fermata!B8 | 
[V:2] !fermata!d8 | 
[V:3] !fermata!G8 | 
[V:4] !fermata!G,,8 | 
[V:1] A6GF | 
[V:2] !fermata!A8 | 
[V:3] !fermata!F8 | 
[V:4] !fermata!D,8 | 
[V:1] !fermata!E8 | 
[V:2] !fermata!c8 | 
[V:3] !fermata!G8 | 
[V:4] !fermata!C,8 | 
[V:1] !fermata!D8 ||  
[V:2] !fermata!B8 ||  
[V:3] !fermata!G8 ||  
[V:4] !fermata!G,,8 ||  
[V:1]  [K:F] [K:clef=treble][M:2/1]z8 | 
[V:2]  [K:F] [K:clef=treble-8][M:2/1]d8- | 
[V:3]  [K:F] [K:clef=treble-8][M:2/1]G8 | 
[V:4]  [K:F] [K:clef=bass][M:2/1]G,8 | 
[V:1] z8 | 
[V:2] d8- | 
[V:3] G6A2 | 
[V:4] G,4G,4- | 
[V:1] z8 | 
[V:2] d8 | 
[V:3] B8 | 
[V:4] G,2F,E,D,4 | 
[V:1] G8- | 
[V:2] _e8 | 
[V:3] c8 | 
[V:4] C,8 | 
[V:1] G8 | 
[V:2] d8- | 
[V:3] B4G4- | 
[V:4] G,8 | 
[V:1] A8 | 
[V:2] d8 | 
[V:3] G2^FE^F4 | 
[V:4] D,8 | 
[V:1] G8 | 
[V:2] B8 | 
[V:3] G8 | 
[V:4] G,,8 | 
[V:1] E8 | 
[V:2] z4c4 | 
[V:3] G6FE | 
[V:4] C,8 | 
[V:1] F4D4 | 
[V:2] A4B4 | 
[V:3] D8 | 
[V:4] D,6C,B,, | 
[V:1] E4F4 | 
[V:2] c4d4 | 
[V:3] A8 | 
[V:4] A,,4D,4 | 
[V:1] G8 | 
[V:2] B6AG | 
[V:3] G4d4- | 
[V:4] G,,8 | 
[V:1] A8 | 
[V:2] F4F4 | 
[V:3] d2cBA4 | 
[V:4] z4D,4 | 
[V:1] z8 | 
[V:2] F6F2 | 
[V:3] z4D4 | 
[V:4] D,6D,2 | 
[V:1] A8- | 
[V:2] D2d3ef2- | 
[V:3] F6F2 | 
[V:4] D,4D,2D,2- | 
[V:1] A8 | 
[V:2] f2edc4 | 
[V:3] F4F4 | 
[V:4] D,2C,B,,A,,4 | 
[V:1] B8- | 
[V:2] B4G2d2- | 
[V:3] G8 | 
[V:4] G,,8- | 
[V:1] B8 | 
[V:2] dcB4AG | 
[V:3] D8 | 
[V:4] G,,8 | 
[V:1] A8- | 
[V:2] F4D2F2- | 
[V:3] z4d4- | 
[V:4] D,8- | 
[V:1] A4F4 | 
[V:2] F2G2A4 | 
[V:3] d8 | 
[V:4] D,8 | 
[V:1] G4A4- | 
[V:2] B4c2A2- | 
[V:3] d4e2f2- | 
[V:4] G,4C,2D,2- | 
[V:1] A2B2c4 | 
[V:2] AGG4^F2 | 
[V:3] f2edc4 | 
[V:4] D,2B,,2A,,4 | 
[V:1] B4A2B2- | 
[V:2] G4D4 | 
[V:3] z2d3cd2- | 
[V:4] G,,4z4 | 
[V:1] B2AG^F3E | 
[V:2] z4z2d2- | 
[V:3] d2cBA4 | 
[V:4] G,,4D,4 | 
[V:1] G8 | 
[V:2] dcd2_e2d2- | 
[V:3] G8 | 
[V:4] G,,4C,2B,,2 | 
[V:1] z8 | 
[V:2] dcB4AG | 
[V:3] z8 | 
[V:4] G,,4G,,4 | 
[V:1] z8 | 
[V:2] AG^FE^F4 | 
[V:3] A8 | 
[V:4] D,4z2D,2 | 
[V:1] z8 | 
[V:2] G8 | 
[V:3] B6G2 | 
[V:4] G,,2G,4F,E, | 
[V:1] z8 | 
[V:2] z8 | 
[V:3] B2A4d2- | 
[V:4] D,3C,D,2B,,2 | 
[V:1] z8 | 
[V:2] z8 | 
[V:3] d2c2B2AG | 
[V:4] A,,4G,,2D,2- | 
[V:1] z8 | 
[V:2] z8 | 
[V:3] F2G2A2D2- | 
[V:4] D,2E,2F,4 | 
[V:1] z8 | 
[V:2] z8 | 
[V:3] D2E2F2G2 | 
[V:4] B,,2C,2D,2G,,2 | 
[V:1] z8 | 
[V:2] z8 | 
[V:3] D2G4^F2 | 
[V:4] B,,2C,2A,,4 | 
[V:1] z8 | 
[V:2] z8 | 
[V:3] G4z4 | 
[V:4] G,,8 | 
[V:1] z8 | 
[V:2] d4d4 | 
[V:3] z8 | 
[V:4] z8 | 
[V:1] z8 | 
[V:2] _e2d4B2 | 
[V:3] G4G4 | 
[V:4] z8 | 
[V:1] z4G4 | 
[V:2] c3dB4 | 
[V:3] A4G4- | 
[V:4] z8 | 
[V:1] G4A4 | 
[V:2] z2c4A2 | 
[V:3] G2E2F4 | 
[V:4] z8 | 
[V:1] G2E2F3G | 
[V:2] B2c2d4 | 
[V:3] E4z2D2 | 
[V:4] z8 | 
[V:1] E8 | 
[V:2] e2c4A2 | 
[V:3] A2A2A4 | 
[V:4] z8 | 
[V:1] z2F4D2 | 
[V:2] A3GA2B2 | 
[V:3] D4z2d2 | 
[V:4] D,2D,4B,,2 | 
[V:1] E2F2G4 | 
[V:2] A4G2d2- | 
[V:3] c2A2B2AG | 
[V:4] C,2D,2G,,4 | 
[V:1] A4z4 | 
[V:2] d2cBA4 | 
[V:3] F6D2 | 
[V:4] z2D,2F,3F, | 
[V:1] A6G2 | 
[V:2] z2D4G2- | 
[V:3] D4z4 | 
[V:4] F,2F,3D,E,2 | 
[V:1] A4B3G | 
[V:2] G2^F2G4- | 
[V:3] z2d4d2 | 
[V:4] D,4G,,4 | 
[V:1] B2A4F2 | 
[V:2] G2D2F4 | 
[V:3] d4c2A2 | 
[V:4] z8 | 
[V:1] G2A3GB2- | 
[V:2] E2F2D2G2- | 
[V:3] B2A2d3c | 
[V:4] z8 | 
[V:1] B2AG^F3E | 
[V:2] G4D4 | 
[V:3] d2B2A4 | 
[V:4] z8 | 
[V:1] G8- | 
[V:2] B6G2 | 
[V:3] G8 | 
[V:4] z4G,,4 | 
[V:1] G8 | 
[V:2] G8 | 
[V:3] z8 | 
[V:4] G,,4C,4- | 
[V:1] z8 | 
[V:2] z8 | 
[V:3] E4F4 | 
[V:4] C,2B,,2A,,4 | 
[V:1] z8 | 
[V:2] z8 | 
[V:3] G8 | 
[V:4] G,,2C,4B,,2 | 
[V:1] z8 | 
[V:2] z8 | 
[V:3] E4F4 | 
[V:4] C,2_E,2D,4 | 
[V:1] z8 | 
[V:2] z8 | 
[V:3] G4A2B2- | 
[V:4] B,,2C,4D,2- | 
[V:1] z8 | 
[V:2] z8 | 
[V:3] BAA4G2 | 
[V:4] D,C,A,,2B,,4 | 
[V:1] z8 | 
[V:2] z8 | 
[V:3] A8 | 
[V:4] A,,8 | 
[V:1] A8- | 
[V:2] A3Bc2d2- | 
[V:3] z8 | 
[V:4] z8 | 
[V:1] A8 | 
[V:2] d2c2d4 | 
[V:3] z8 | 
[V:4] z8 | 
[V:1] B8 | 
[V:2] z2G4AB | 
[V:3] z8 | 
[V:4] z8 | 
[V:1] A4A4 | 
[V:2] c3Bc2d2- | 
[V:3] z8 | 
[V:4] z8 | 
[V:1] F4G4 | 
[V:2] d2B4AG | 
[V:3] z8 | 
[V:4] z8 | 
[V:1] A8 | 
[V:2] F2D4E2 | 
[V:3] z8 | 
[V:4] z8 | 
[V:1] A4G4- | 
[V:2] F4G3A | 
[V:3] z8 | 
[V:4] z8 | 
[V:1] G2^FEF4 | 
[V:2] B2c2A4 | 
[V:3] z8 | 
[V:4] z8 | 
[V:1] [M:3/1]G12 | 
[V:2] [M:3/1]G12 | 
[V:3] [M:3/1]z12 | 
[V:4] [M:3/1]z4E,6F,2 | 
[V:1] z12 | 
[V:2] z12 | 
[V:3] z12 | 
[V:4] G,6G,2G,4 | 
[V:1] z12 | 
[V:2] z4A6B2 | 
[V:3] z12 | 
[V:4] F,6E,2D,4 | 
[V:1] z4E6F2 | 
[V:2] c6c2c4 | 
[V:3] z12 | 
[V:4] C,12- | 
[V:1] G6G2G4 | 
[V:2] c4c4c4 | 
[V:3] z4E6F2 | 
[V:4] C,12 | 
[V:1] G4D2E4DC | 
[V:2] B12 | 
[V:3] G6G2G4 | 
[V:4] G,,12- | 
[V:1] E2D3CB,A,B,4 | 
[V:2] z12 | 
[V:3] G4G4G4 | 
[V:4] G,,12- | 
[V:1] G,4z4G4 | 
[V:2] d4d4d4 | 
[V:3] G12 | 
[V:4] G,,12 | 
[V:1] F4E6D2 | 
[V:2] c8B4 | 
[V:3] A8G4 | 
[V:4] z12 | 
[V:1] D6^C2C2=B,2 | 
[V:2] A4G2G4FG | 
[V:3] F4E8 | 
[V:4] z12 | 
[V:1] D4F4E4 | 
[V:2] A12 | 
[V:3] F6D2E4 | 
[V:4] D,8C,4 | 
[V:1] z2A,2B,2D4CB, | 
[V:2] D12 | 
[V:3] F4G6F2 | 
[V:4] D,4B,,8 | 
[V:1] C6D2E4 | 
[V:2] E12 | 
[V:3] A8z4 | 
[V:4] A,,6B,,2C,4 | 
[V:1] F6G2A4 | 
[V:2] D6E2F4 | 
[V:3] A12 | 
[V:4] D,6C,B,,A,,4 | 
[V:1] D4G8 | 
[V:2] G12 | 
[V:3] B12 | 
[V:4] G,,12 | 
[V:1] F8F4 | 
[V:2] D12 | 
[V:3] A8A4 | 
[V:4] z4z4D,4- | 
[V:1] F4G6FG | 
[V:2] z12 | 
[V:3] d4c2B4AG | 
[V:4] D,4_E,8 | 
[V:1] A2F4D2D4 | 
[V:2] d8d4 | 
[V:3] F4B6A2 | 
[V:4] D,8B,,4 | 
[V:1] z4z4A4 | 
[V:2] _e4d2B2c4 | 
[V:3] G8^F4 | 
[V:4] C,4B,,2G,,2A,,4 | 
[V:1] B4A2F2G2D2 | 
[V:2] B4d6c2 | 
[V:3] G4D4G4- | 
[V:4] G,,4z4z4 | 
[V:1] E2D4CB,A,4 | 
[V:2] B4A4A4 | 
[V:3] G4F8 | 
[V:4] G,,4D,8 | 
[V:1] B,6G,2G,4 | 
[V:2] G12 | 
[V:3] G8z4 | 
[V:4] G,,8G,,4 | 
[V:1] z4E4F4 | 
[V:2] z12 | 
[V:3] G8A4 | 
[V:4] C,6B,,2A,,4 | 
[V:1] G8G4- | 
[V:2] d6d2d4- | 
[V:3] B6B2B4 | 
[V:4] G,,12- | 
[V:1] G4G8 | 
[V:2] d4d8 | 
[V:3] B4G4B4 | 
[V:4] G,,12 | 
[V:1] F6G2A4 | 
[V:2] c6d2e4 | 
[V:3] A6B2c4 | 
[V:4] z12 | 
[V:1] B6A2c4 | 
[V:2] f6e2g4 | 
[V:3] d6c2_e4 | 
[V:4] z12 | 
[V:1] B4A6G2 | 
[V:2] f4e6d2 | 
[V:3] d4c6B2 | 
[V:4] z12 | 
[V:1] G6^F2F2E2 | 
[V:2] d8c4 | 
[V:3] G4A8 | 
[V:4] z12 | 
[V:1] G12- | 
[V:2] d12- | 
[V:3] G12- | 
[V:4] G,,12 | 
[V:1] G12 ||  
[V:2] d12 ||  
[V:3] G12 ||  
[V:4] G,,12 ||  
[V:1]  [K:F] [K:clef=treble][M:2/1]z8 | 
[V:2]  [K:F] [K:clef=treble-8][M:2/1]z8 | 
[V:3]  [K:F] [K:clef=treble-8][M:2/1]D8 | 
[V:4]  [K:F] [K:clef=bass][M:2/1]z8 | 
[V:1] z8 | 
[V:2] z8 | 
[V:3] D4G4- | 
[V:4] z4G,,4 | 
[V:1] z8 | 
[V:2] z8 | 
[V:3] G2G2G4 | 
[V:4] G,,4C,4- | 
[V:1] z8 | 
[V:2] z8 | 
[V:3] G4A2G2- | 
[V:4] C,2C,2C,4- | 
[V:1] z8 | 
[V:2] z8 | 
[V:3] GFEDE4 | 
[V:4] C,4C,4 | 
[V:1] z8 | 
[V:2] z8 | 
[V:3] D4z4 | 
[V:4] D,8 | 
[V:1] z8 | 
[V:2] z8 | 
[V:3] z8 | 
[V:4] C,4B,,4 | 
[V:1] z8 | 
[V:2] z8 | 
[V:3] A8 | 
[V:4] A,,8 | 
[V:1] z8 | 
[V:2] z8 | 
[V:3] B6G2 | 
[V:4] G,,8 | 
[V:1] z8 | 
[V:2] z8 | 
[V:3] B4A4 | 
[V:4] D,8 | 
[V:1] z8 | 
[V:2] z8 | 
[V:3] G4c4 | 
[V:4] _E,8 | 
[V:1] z8 | 
[V:2] z8 | 
[V:3] B2A4F2 | 
[V:4] D,8 | 
[V:1] z8 | 
[V:2] z8 | 
[V:3] G2A2D4 | 
[V:4] C,4B,,4 | 
[V:1] z8 | 
[V:2] z8 | 
[V:3] z2d4c2 | 
[V:4] G,,2B,,2A,,4 | 
[V:1] z8 | 
[V:2] z8 | 
[V:3] B2d3cAB | 
[V:4] G,,4D,4 | 
[V:1] z8 | 
[V:2] z8 | 
[V:3] c2B2G2A2- | 
[V:4] E,2G,4F,2 | 
[V:1] z8 | 
[V:2] z8 | 
[V:3] A2D4E2 | 
[V:4] D,4B,,2C,2 | 
[V:1] z8 | 
[V:2] z8 | 
[V:3] D2G4^F2 | 
[V:4] D,2G,,2A,,4 | 
[V:1] z8 | 
[V:2] z8 | 
[V:3] G8 | 
[V:4] G,,4z4 | 
[V:1] z8 | 
[V:2] z8 | 
[V:3] z8 | 
[V:4] G,,4B,,4 | 
[V:1] z8 | 
[V:2] z8 | 
[V:3] E4F4 | 
[V:4] C,4D,4 | 
[V:1] z8 | 
[V:2] z8 | 
[V:3] G8 | 
[V:4] z2B,,4C,2- | 
[V:1] z8 | 
[V:2] z8 | 
[V:3] G8 | 
[V:4] C,2B,,A,,G,,4 | 
[V:1] z8 | 
[V:2] z8 | 
[V:3] G4G4 | 
[V:4] z2G,,4C,2- | 
[V:1] z8 | 
[V:2] z8 | 
[V:3] G8 | 
[V:4] C,2B,,2C,2_E,2 | 
[V:1] z8 | 
[V:2] z8 | 
[V:3] F4G4 | 
[V:4] D,2F,4E,2 | 
[V:1] z8 | 
[V:2] z8 | 
[V:3] A6G2 | 
[V:4] F,2D,4G,2- | 
[V:1] z8 | 
[V:2] z8 | 
[V:3] A4B4 | 
[V:4] G,2F,2G,2D,2- | 
[V:1] z8 | 
[V:2] z8 | 
[V:3] A2G4^F2 | 
[V:4] D,2B,,2C,2D,2 | 
[V:1] z8 ||  
[V:2] z8 ||  
[V:3] G8 ||  
[V:4] G,,8 ||  
[V:1]  [K:F] [K:clef=treble][M:2/1]z8 | 
[V:2]  [K:F] [K:clef=treble-8][M:2/1]A4B4 | 
[V:3]  [K:F] [K:clef=treble-8][M:2/1]z8 | 
[V:4]  [K:F] [K:clef=bass][M:2/1]z8 | 
[V:1] (3E4F4G4- | 
[V:2] c8 | 
[V:3] z8 | 
[V:4] z8 | 
[V:1] (3:2:2G4G8 | 
[V:2] c8 | 
[V:3] z8 | 
[V:4] z8 | 
[V:1] (3:2:2G8A4- | 
[V:2] c8 | 
[V:3] z8 | 
[V:4] z8 | 
[V:1] (3A4G4F4 | 
[V:2] d8 | 
[V:3] z8 | 
[V:4] z8 | 
[V:1] (3E4z4F4 | 
[V:2] c4B4 | 
[V:3] z8 | 
[V:4] z8 | 
[V:1] (3F4E4F4- | 
[V:2] A8 | 
[V:3] z8 | 
[V:4] z8 | 
[V:1] (3:2:2F4G8 | 
[V:2] B4B4 | 
[V:3] z8 | 
[V:4] z8 | 
[V:1] A8 | 
[V:2] A8 | 
[V:3] z8 | 
[V:4] z8 | 
[V:1] (3z4z4A4- | 
[V:2] B4c4 | 
[V:3] z8 | 
[V:4] z8 | 
[V:1] (3:2:2A4B8 | 
[V:2] d4z4 | 
[V:3] z8 | 
[V:4] z8 | 
[V:1] (3:2:2A8A4- | 
[V:2] d8 | 
[V:3] z8 | 
[V:4] z8 | 
[V:1] (3:2:2A4G8 | 
[V:2] _e8 | 
[V:3] z8 | 
[V:4] z8 | 
[V:1] (3F6G2A4 | 
[V:2] d8 | 
[V:3] z8 | 
[V:4] z8 | 
[V:1] (3B4A6G2 | 
[V:2] d4c4 | 
[V:3] z8 | 
[V:4] z8 | 
[V:1] (3:2:2G8^F4 | 
[V:2] B2G2A4 | 
[V:3] z8 | 
[V:4] z8 | 
[V:1] (3:2:2G8z4 | 
[V:2] G8 | 
[V:3] z8 | 
[V:4] z8 | 
[V:1] (3E4F4G4- | 
[V:2] A4B4 | 
[V:3] z8 | 
[V:4] z8 | 
[V:1] (3:2:4G2G2G4z4 | 
[V:2] c6c2 | 
[V:3] z8 | 
[V:4] z8 | 
[V:1] (3z4G4G4 | 
[V:2] B4c4 | 
[V:3] z8 | 
[V:4] z8 | 
[V:1] (3F4A6G2 | 
[V:2] d4d2c2- | 
[V:3] z8 | 
[V:4] z8 | 
[V:1] (3:2:2G8^F4 | 
[V:2] c2B2A4 | 
[V:3] z8 | 
[V:4] z8 | 
[V:1] G4z4 | 
[V:2] G4z4 | 
[V:3] z8 | 
[V:4] E,4F,4 | 
[V:1] z8 | 
[V:2] z8 | 
[V:3] B4c4 | 
[V:4] G,8 | 
[V:1] z8 | 
[V:2] z8 | 
[V:3] d4d2d2- | 
[V:4] G,8 | 
[V:1] z8 | 
[V:2] z8 | 
[V:3] d2d4e2- | 
[V:4] G,8 | 
[V:1] z8 | 
[V:2] z8 | 
[V:3] e2c4BA | 
[V:4] A,8 | 
[V:1] z8 | 
[V:2] z8 | 
[V:3] B4A4 | 
[V:4] G,4F,4 | 
[V:1] z8 | 
[V:2] z8 | 
[V:3] z4e4 | 
[V:4] E,8 | 
[V:1] z8 | 
[V:2] z8 | 
[V:3] f6f2 | 
[V:4] D,8 | 
[V:1] z8 | 
[V:2] z8 | 
[V:3] f4e4 | 
[V:4] A,8 | 
[V:1] z8 | 
[V:2] z8 | 
[V:3] d2d4cB | 
[V:4] B,8 | 
[V:1] z8 | 
[V:2] z8 | 
[V:3] c3de2f2- | 
[V:4] A,4A,4 | 
[V:1] z8 | 
[V:2] z8 | 
[V:3] f2e3dcB | 
[V:4] A,4G,4 | 
[V:1] z8 | 
[V:2] z8 | 
[V:3] A2d4B2 | 
[V:4] F,4G,4 | 
[V:1] z8 | 
[V:2] z8 | 
[V:3] c2BAG2d2- | 
[V:4] A,4B,4- | 
[V:1] z8 | 
[V:2] z8 | 
[V:3] d2c2_e2d2- | 
[V:4] B,2A,2G,4- | 
[V:1] z8 | 
[V:2] z8 | 
[V:3] d2cBA4 | 
[V:4] G,4^F,4 | 
[V:1] z8 | 
[V:2] z8 | 
[V:3] G8 | 
[V:4] G,8 | 
[V:1] [M:3/1]z12 | 
[V:2] [M:3/1]z12 | 
[V:3] [M:3/1]z12 | 
[V:4] [M:3/1]E,8F,4 | 
[V:1] z12 | 
[V:2] z12 | 
[V:3] z12 | 
[V:4] G,8G,4- | 
[V:1] z12 | 
[V:2] E8F4 | 
[V:3] z12 | 
[V:4] G,4C,4D,4 | 
[V:1] z12 | 
[V:2] G8G4- | 
[V:3] z12 | 
[V:4] B,,4C,6B,,2 | 
[V:1] z12 | 
[V:2] G4c8 | 
[V:3] z4E4F4 | 
[V:4] G,,4A,,8 | 
[V:1] z12 | 
[V:2] B6G2A4 | 
[V:3] G8F4 | 
[V:4] G,,4z4z4 | 
[V:1] z4E4F4 | 
[V:2] B4c6B2 | 
[V:3] G4A8 | 
[V:4] z12 | 
[V:1] G8G4- | 
[V:2] d8d4 | 
[V:3] G8G4 | 
[V:4] z12 | 
[V:1] G4G4G4 | 
[V:2] e4c8 | 
[V:3] c6d2e4 | 
[V:4] z12 | 
[V:1] A8G4 | 
[V:2] F8c4 | 
[V:3] f8e4 | 
[V:4] z12 | 
[V:1] F4E8 | 
[V:2] d4A8 | 
[V:3] d4^c6=B2 | 
[V:4] z12 | 
[V:1] F4F4E4 | 
[V:2] D4z4z4 | 
[V:3] d8c4 | 
[V:4] D,6B,,2C,4 | 
[V:1] F4G6F2 | 
[V:2] z12 | 
[V:3] A4B6A2 | 
[V:4] D,4G,,8 | 
[V:1] A12- | 
[V:2] z12 | 
[V:3] F8z4 | 
[V:4] D,12- | 
[V:1] A8z4 | 
[V:2] d12- | 
[V:3] D4F6GA | 
[V:4] D,12 | 
[V:1] D4F6GA | 
[V:2] d8c4 | 
[V:3] B8A4 | 
[V:4] z12 | 
[V:1] B4A6G2 | 
[V:2] G4A4F4 | 
[V:3] d4c6B2 | 
[V:4] z12 | 
[V:1] G8^F4 | 
[V:2] G4D8 | 
[V:3] G4A8 | 
[V:4] z12 | 
[V:1] G12- | 
[V:2] d12 | 
[V:3] G12 | 
[V:4] z12 | 
[V:1] G12 | 
[V:2] d12 | 
[V:3] z12 | 
[V:4] G,8G,4 | 
[V:1] z12 | 
[V:2] z12 | 
[V:3] z12 | 
[V:4] A,6G,2F,4 | 
[V:1] z12 | 
[V:2] G8G4 | 
[V:3] z12 | 
[V:4] E,6D,2E,4 | 
[V:1] z12 | 
[V:2] A6G2F4 | 
[V:3] z12 | 
[V:4] F,4D,8 | 
[V:1] z12 | 
[V:2] E6D2E4 | 
[V:3] G8G4 | 
[V:4] C,12 | 
[V:1] z12 | 
[V:2] F4D8 | 
[V:3] A6G2F4 | 
[V:4] z12 | 
[V:1] z12 | 
[V:2] C12 | 
[V:3] E8z4 | 
[V:4] A,,8A,,4 | 
[V:1] z12 | 
[V:2] z12 | 
[V:3] F4F4E4 | 
[V:4] D,8C,4 | 
[V:1] z12 | 
[V:2] z12 | 
[V:3] F4G6F2 | 
[V:4] A,,4B,,8 | 
[V:1] z12 | 
[V:2] z12 | 
[V:3] A8z4 | 
[V:4] A,,8A,,4 | 
[V:1] z12 | 
[V:2] z12 | 
[V:3] A6G2A4 | 
[V:4] D,6E,2F,4 | 
[V:1] z12 | 
[V:2] z12 | 
[V:3] B4A6G2 | 
[V:4] G,2D,4C,2D,2B,,2- | 
[V:1] z12 | 
[V:2] z12 | 
[V:3] G8^F4 | 
[V:4] B,,2C,2B,,2G,,2A,,4 | 
[V:1] G8G4- | 
[V:2] G8G4 | 
[V:3] G4z4z4 | 
[V:4] G,,12 | 
[V:1] G4E8 | 
[V:2] E6F2G4 | 
[V:3] z12 | 
[V:4] z12 | 
[V:1] F8F4 | 
[V:2] A4D8 | 
[V:3] z12 | 
[V:4] z12 | 
[V:1] D4E8 | 
[V:2] d8^c4 | 
[V:3] z12 | 
[V:4] z12 | 
[V:1] D8z4 | 
[V:2] d12 | 
[V:3] z4D4F4- | 
[V:4] z12 | 
[V:1] D4F6G2 | 
[V:2] z12 | 
[V:3] F2G2A4B4 | 
[V:4] z12 | 
[V:1] A4B6A2 | 
[V:2] z12 | 
[V:3] A4d8 | 
[V:4] z12 | 
[V:1] A8G4 | 
[V:2] z12 | 
[V:3] c4B8 | 
[V:4] z12 | 
[V:1] A8z4 | 
[V:2] z12 | 
[V:3] A8z4 | 
[V:4] z12 | 
[V:1] A8G4 | 
[V:2] e8d4 | 
[V:3] c8B4 | 
[V:4] z12 | 
[V:1] E4F8 | 
[V:2] =B4c8 | 
[V:3] G4A8 | 
[V:4] z12 | 
[V:1] G12 | 
[V:2] d4=B4c4 | 
[V:3] G12 | 
[V:4] G,8E,4 | 
[V:1] A6G2F4 | 
[V:2] d8d4 | 
[V:3] D12 | 
[V:4] F,4D,8 | 
[V:1] E4F6E2 | 
[V:2] c4d4=B4 | 
[V:3] A8G4 | 
[V:4] A,,4D,4E,4 | 
[V:1] E8D4 | 
[V:2] c4A8 | 
[V:3] E4F8 | 
[V:4] C,4D,8 | 
[V:1] E12 |]  
[V:2] A12 |]  
[V:3] E12 |]  
[V:4] A,,12 |]  



